X:6994
T:Here and There Hornpipe
M:2/4
L:1/16
K:A
(3EFG|AEAc BGBd|cAcd eaec|dcBd cBAc|BAGA B2(3EFG|!
AEAc BGBd|cAcd eaec|dcBd cBAc|BAGB A2:|!
|:cd|ecAc e2ag|fefg f2Bc|dBGB dBgf|e_e=ef =e2(3EFG|!
AEAc BGBd|cAcd eaec|dcBd cBAc|BAGB A2:|!
